1-js/06-advanced-functions/01-recursion/linked-list-split.svg

<svg xmlns="http://www.w3.org/2000/svg" width="410" height="150" viewBox="0 0 410 150"><defs><style>@import url(https://fonts.googleapis.com/css?family=Open+Sans:bold,italic,bolditalic%7CPT+Mono);@font-face{font-family:&apos;PT Mono&apos;;font-weight:700;font-style:normal;src:local(&apos;PT MonoBold&apos;),url(/font/PTMonoBold.woff2) format(&apos;woff2&apos;),url(/font/PTMonoBold.woff) format(&apos;woff&apos;),url(/font/PTMonoBold.ttf) format(&apos;truetype&apos;)}</style></defs><g id="combined" fill="none" fill-rule="evenodd" stroke="none" stroke-width="1"><g id="linked-list-split.svg"><path id="Rectangle-15" fill="#FFF9EB" stroke="#E8C48E" stroke-width="2" d="M89 30h78v32H89z"/><text id="value" fill="#8A704D" font-family="PTMono-Regular, PT Mono" font-size="14" font-weight="normal"><tspan x="91" y="20">value</tspan></text><text id="-8" fill="#8A704D" font-family="PTMono-Regular, PT Mono" font-size="14" font-weight="normal"><tspan x="123" y="50">1</tspan></text><path id="Line-21" fill="#EE6B47" fill-rule="nonzero" d="M211.27 38l14 7-14 7-.001-6H152.73v-2h58.539l.001-6z"/><text id="next" fill="#EE6B47" font-family="PTMono-Regular, PT Mono" font-size="14" font-weight="normal"><tspan x="177" y="34">next</tspan></text><path id="Rectangle-11" fill="#FFF9EB" stroke="#E8C48E" stroke-width="2" d="M229 30h78v32h-78z"/><text id="value-2" fill="#8A704D" font-family="PTMono-Regular, PT Mono" font-size="14" font-weight="normal"><tspan x="231" y="20">value</tspan></text><text id="-9" fill="#8A704D" font-family="PTMono-Regular, PT Mono" font-size="14" font-weight="normal"><tspan x="263" y="50">2</tspan></text><path id="Line-22" fill="#EE6B47" fill-rule="nonzero" d="M351.27 38l14 7-14 7v-6h-58.54v-2h58.54v-6z"/><text id="next-2" fill="#EE6B47" font-family="PTMono-Regular, PT Mono" font-size="14" font-weight="normal"><tspan x="317" y="34">next</tspan></text><path id="Rectangle-13" fill="#FFF9EB" stroke="#E8C48E" stroke-width="2" d="M88 95h78v32H88z"/><text id="value-3" fill="#8A704D" font-family="PTMono-Regular, PT Mono" font-size="14" font-weight="normal"><tspan x="90" y="85">value</tspan></text><text id="-10" fill="#8A704D" font-family="PTMono-Regular, PT Mono" font-size="14" font-weight="normal"><tspan x="122" y="115">3</tspan></text><path id="Line-23" fill="#EE6B47" fill-rule="nonzero" d="M210.27 103l14 7-14 7-.001-6H151.73v-2h58.539l.001-6z"/><text id="next-3" fill="#EE6B47" font-family="PTMono-Regular, PT Mono" font-size="14" font-weight="normal"><tspan x="176" y="99">next</tspan></text><path id="Rectangle-14" fill="#FFF9EB" stroke="#E8C48E" stroke-width="2" d="M228 95h78v32h-78z"/><text id="value-4" fill="#8A704D" font-family="PTMono-Regular, PT Mono" font-size="14" font-weight="normal"><tspan x="230" y="85">value</tspan></text><text id="4" fill="#8A704D" font-family="PTMono-Regular, PT Mono" font-size="14" font-weight="normal"><tspan x="262" y="115">4</tspan></text><path id="Line-24" fill="#EE6B47" fill-rule="nonzero" d="M350.27 103l14 7-14 7v-6h-58.54v-2h58.54v-6z"/><text id="next-4" fill="#EE6B47" font-family="PTMono-Regular, PT Mono" font-size="14" font-weight="normal"><tspan x="316" y="99">next</tspan></text><text id="null" fill="#8A704D" font-family="PTMono-Regular, PT Mono" font-size="14" font-weight="normal"><tspan x="372" y="114">null</tspan></text><text id="null-copy" fill="#8A704D" font-family="PTMono-Regular, PT Mono" font-size="14" font-weight="normal"><tspan x="372" y="49">null</tspan></text><text id="secondList" fill="#8A704D" font-family="PTMono-Regular, PT Mono" font-size="14" font-weight="normal"><tspan x="0" y="114">secondList</tspan></text><text id="list" fill="#8A704D" font-family="PTMono-Regular, PT Mono" font-size="14" font-weight="normal"><tspan x="51" y="49">list</tspan></text></g></g></svg>

<?xml version="1.0" encoding="UTF-8"?>
<svg width="410px" height="150px" viewBox="0 0 410 150" version="1.1" xmlns="http://www.w3.org/2000/svg" xmlns:xlink="http://www.w3.org/1999/xlink">
    <!-- Generator: sketchtool 61.2 (101010) - https://sketch.com -->
    <title>linked-list-split.svg</title>
    <desc>Created with sketchtool.</desc>
    <g id="combined" stroke="none" stroke-width="1" fill="none" fill-rule="evenodd">
        <g id="linked-list-split.svg">
            <rect id="Rectangle-15" stroke="#E8C48E" stroke-width="2" fill="#FFF9EB" x="89" y="30" width="78" height="32"></rect>
            <text id="value" font-family="PTMono-Regular, PT Mono" font-size="14" font-weight="normal" fill="#8A704D">
                <tspan x="91" y="20">value</tspan>
            </text>
            <text id="-8" font-family="PTMono-Regular, PT Mono" font-size="14" font-weight="normal" fill="#8A704D">
                <tspan x="123" y="50">1</tspan>
            </text>
            <path id="Line-21" d="M211.27,38 L225.27,45 L211.27,52 L211.269,46 L152.73,46 L152.73,44 L211.269,44 L211.27,38 Z" fill="#EE6B47" fill-rule="nonzero"></path>
            <text id="next" font-family="PTMono-Regular, PT Mono" font-size="14" font-weight="normal" fill="#EE6B47">
                <tspan x="177" y="34">next</tspan>
            </text>
            <rect id="Rectangle-11" stroke="#E8C48E" stroke-width="2" fill="#FFF9EB" x="229" y="30" width="78" height="32"></rect>
            <text id="value-2" font-family="PTMono-Regular, PT Mono" font-size="14" font-weight="normal" fill="#8A704D">
                <tspan x="231" y="20">value</tspan>
            </text>
            <text id="-9" font-family="PTMono-Regular, PT Mono" font-size="14" font-weight="normal" fill="#8A704D">
                <tspan x="263" y="50">2</tspan>
            </text>
            <path id="Line-22" d="M351.27,38 L365.27,45 L351.27,52 L351.27,46 L292.73,46 L292.73,44 L351.27,44 L351.27,38 Z" fill="#EE6B47" fill-rule="nonzero"></path>
            <text id="next-2" font-family="PTMono-Regular, PT Mono" font-size="14" font-weight="normal" fill="#EE6B47">
                <tspan x="317" y="34">next</tspan>
            </text>
            <rect id="Rectangle-13" stroke="#E8C48E" stroke-width="2" fill="#FFF9EB" x="88" y="95" width="78" height="32"></rect>
            <text id="value-3" font-family="PTMono-Regular, PT Mono" font-size="14" font-weight="normal" fill="#8A704D">
                <tspan x="90" y="85">value</tspan>
            </text>
            <text id="-10" font-family="PTMono-Regular, PT Mono" font-size="14" font-weight="normal" fill="#8A704D">
                <tspan x="122" y="115">3</tspan>
            </text>
            <path id="Line-23" d="M210.27,103 L224.27,110 L210.27,117 L210.269,111 L151.73,111 L151.73,109 L210.269,109 L210.27,103 Z" fill="#EE6B47" fill-rule="nonzero"></path>
            <text id="next-3" font-family="PTMono-Regular, PT Mono" font-size="14" font-weight="normal" fill="#EE6B47">
                <tspan x="176" y="99">next</tspan>
            </text>
            <rect id="Rectangle-14" stroke="#E8C48E" stroke-width="2" fill="#FFF9EB" x="228" y="95" width="78" height="32"></rect>
            <text id="value-4" font-family="PTMono-Regular, PT Mono" font-size="14" font-weight="normal" fill="#8A704D">
                <tspan x="230" y="85">value</tspan>
            </text>
            <text id="4" font-family="PTMono-Regular, PT Mono" font-size="14" font-weight="normal" fill="#8A704D">
                <tspan x="262" y="115">4</tspan>
            </text>
            <path id="Line-24" d="M350.27,103 L364.27,110 L350.27,117 L350.27,111 L291.73,111 L291.73,109 L350.27,109 L350.27,103 Z" fill="#EE6B47" fill-rule="nonzero"></path>
            <text id="next-4" font-family="PTMono-Regular, PT Mono" font-size="14" font-weight="normal" fill="#EE6B47">
                <tspan x="316" y="99">next</tspan>
            </text>
            <text id="null" font-family="PTMono-Regular, PT Mono" font-size="14" font-weight="normal" fill="#8A704D">
                <tspan x="372" y="114">null</tspan>
            </text>
            <text id="null-copy" font-family="PTMono-Regular, PT Mono" font-size="14" font-weight="normal" fill="#8A704D">
                <tspan x="372" y="49">null</tspan>
            </text>
            <text id="secondList" font-family="PTMono-Regular, PT Mono" font-size="14" font-weight="normal" fill="#8A704D">
                <tspan x="0" y="114">secondList</tspan>
            </text>
            <text id="list" font-family="PTMono-Regular, PT Mono" font-size="14" font-weight="normal" fill="#8A704D">
                <tspan x="51" y="49">list</tspan>
            </text>
        </g>
    </g>
</svg>
